app/src/main/assets/symbols/transport/crossing.svg

<?xml version="1.0" encoding="UTF-8" standalone="no"?>
<svg
   xmlns:dc="http://purl.org/dc/elements/1.1/"
   xmlns:cc="http://creativecommons.org/ns#"
   xmlns:rdf="http://www.w3.org/1999/02/22-rdf-syntax-ns#"
   xmlns:svg="http://www.w3.org/2000/svg"
   xmlns="http://www.w3.org/2000/svg"
   xmlns:sodipodi="http://sodipodi.sourceforge.net/DTD/sodipodi-0.dtd"
   xmlns:inkscape="http://www.inkscape.org/namespaces/inkscape"
   width="11"
   height="11"
   viewBox="0 0 11 11"
   id="svg2"
   version="1.1"
   inkscape:version="0.91 r13725"
   sodipodi:docname="crossing.svg">
  <metadata
     id="metadata10">
    <rdf:RDF>
      <cc:Work
         rdf:about="">
        <dc:format>image/svg+xml</dc:format>
        <dc:type
           rdf:resource="http://purl.org/dc/dcmitype/StillImage" />
      </cc:Work>
    </rdf:RDF>
  </metadata>
  <defs
     id="defs8" />
  <sodipodi:namedview
     pagecolor="#ffffff"
     bordercolor="#666666"
     borderopacity="1"
     objecttolerance="10"
     gridtolerance="10"
     guidetolerance="10"
     inkscape:pageopacity="0"
     inkscape:pageshadow="2"
     inkscape:window-width="1536"
     inkscape:window-height="801"
     id="namedview6"
     showgrid="false"
     inkscape:zoom="42.909091"
     inkscape:cx="1.6163018"
     inkscape:cy="5.7521708"
     inkscape:window-x="-8"
     inkscape:window-y="32"
     inkscape:window-maximized="1"
     inkscape:current-layer="svg2" />
  <path
     d="m 3.3665254,3.3665254 0.8533899,0 L 5.5,4.6466102 6.7800847,3.3665254 l 0.8533899,0 0,0.8533899 L 6.3533898,5.5 l 1.2800848,1.2800847 0,0.8533899 -0.8533899,0 L 5.5,6.3533898 4.2199153,7.6334746 l -0.8533899,0 0,-0.8533899 L 4.6466102,5.5 3.3665254,4.2199153 Z"
     id="halo"
     inkscape:connector-curvature="0"
     style="fill:#ffffff" />
  <path
     d="m 3.5169492,3.5169492 0,0.4406779 L 5.059322,5.5 3.5169492,7.0423729 l 0,0.4406779 0.4406779,0 L 5.5,5.940678 l 1.5423729,1.5423728 0.4406779,0 0,-0.4406779 L 5.940678,5.5 7.4830508,3.9576271 l 0,-0.4406779 -0.4406779,0 L 5.5,5.059322 3.9576271,3.5169492 Z"
     id="crossing"
     inkscape:connector-curvature="0"
     style="fill:#4d4d4d" />
</svg>

<?xml version="1.0" encoding="UTF-8"?>
<svg id="a" width="11" height="11" version="1.1" viewBox="0 0 11 11" xmlns="http://www.w3.org/2000/svg" xmlns:cc="http://creativecommons.org/ns#" xmlns:dc="http://purl.org/dc/elements/1.1/" xmlns:rdf="http://www.w3.org/1999/02/22-rdf-syntax-ns#">
<metadata id="c">
<rdf:RDF>
<cc:Work rdf:about="">
<dc:format>image/svg+xml</dc:format>
<dc:type rdf:resource="http://purl.org/dc/dcmitype/StillImage"/>
</cc:Work>
</rdf:RDF>
</metadata>
<path id="d" d="m3.3665 3.3665h0.85339l1.2801 1.2801 1.2801-1.2801h0.85339v0.85339l-1.2801 1.2801 1.2801 1.2801v0.85339h-0.85339l-1.2801-1.2801-1.2801 1.2801h-0.85339v-0.85339l1.2801-1.2801-1.2801-1.2801z" fill="#fff"/>
<path id="b" d="m3.5169 3.5169v0.44068l1.5424 1.5424-1.5424 1.5424v0.44068h0.44068l1.5424-1.5424 1.5424 1.5424h0.44068v-0.44068l-1.5424-1.5424 1.5424-1.5424v-0.44068h-0.44068l-1.5424 1.5424-1.5424-1.5424z" fill="#4d4d4d"/>
</svg>
